img/youtube.svg

<svg width="93" height="69" viewBox="0 0 93 69" fill="none" xmlns="http://www.w3.org/2000/svg">
<ellipse cx="61" cy="34.5" rx="32" ry="31.5" fill="#1D7FA9" fill-opacity="0.21"/>
<path d="M59.3808 20.7086C59.0676 19.4937 58.4554 18.3856 57.6053 17.4949C56.7552 16.6041 55.6967 15.9616 54.5353 15.6314C50.2288 14.3951 33.0001 14.375 33.0001 14.375C33.0001 14.375 15.7741 14.3549 11.4648 15.5365C10.3041 15.8819 9.24781 16.5335 8.39736 17.4286C7.5469 18.3238 6.93084 19.4325 6.6083 20.6483C5.47255 25.1505 5.46155 34.4885 5.46155 34.4885C5.46155 34.4885 5.45055 43.8725 6.57805 48.3288C7.21055 50.7926 9.0668 52.739 11.4263 53.4031C15.7768 54.6394 32.9588 54.6595 32.9588 54.6595C32.9588 54.6595 50.1876 54.6796 54.4941 53.5009C55.6559 53.1712 56.7154 52.5302 57.5676 51.6413C58.4198 50.7523 59.0354 49.6462 59.3533 48.4323C60.4918 43.9329 60.5001 34.5978 60.5001 34.5978C60.5001 34.5978 60.5551 25.2109 59.3808 20.7086ZM27.4891 43.1394L27.5028 25.8894L41.8221 34.5288L27.4891 43.1394Z" fill="#1D7FA9" fill-opacity="0.81"/>
</svg>

<svg width="93" height="69" fill="none" xmlns="http://www.w3.org/2000/svg"><ellipse cx="61" cy="34.5" rx="32" ry="31.5" fill="#1D7FA9" fill-opacity=".21"/><path d="M59.38 20.709a7.287 7.287 0 0 0-1.775-3.214 6.83 6.83 0 0 0-3.07-1.864C50.23 14.395 33 14.375 33 14.375s-17.226-.02-21.535 1.162a6.983 6.983 0 0 0-3.068 1.892 7.443 7.443 0 0 0-1.789 3.22c-1.135 4.502-1.146 13.84-1.146 13.84s-.011 9.384 1.116 13.84c.633 2.464 2.489 4.41 4.848 5.074 4.35 1.236 21.533 1.257 21.533 1.257s17.229.02 21.535-1.16a6.854 6.854 0 0 0 3.074-1.859 7.311 7.311 0 0 0 1.785-3.209c1.139-4.5 1.147-13.834 1.147-13.834s.055-9.387-1.12-13.89Zm-31.89 22.43.013-17.25 14.32 8.64-14.334 8.61Z" fill="#1D7FA9" fill-opacity=".81"/></svg>
